; generated by Slic3r 1.2.9 on 2016-11-20 at 08:02:19

; external perimeters extrusion width = 0.40mm
; perimeters extrusion width = 0.48mm
; infill extrusion width = 0.48mm
; solid infill extrusion width = 0.48mm
; top infill extrusion width = 0.48mm
; support material extrusion width = 0.40mm

M107
M190 S65 ; set bed temperature
M104 S213 ; set temperature

M109 S213 ; wait for temperature to be reached
G21 ; set units to millimeters
G90 ; use absolute coordinates
M82 ; use absolute distances for extrusion
G92 E0
G1 Z0.400 F7800.000
G1 E-2.00000 F2400.00000
G92 E0
G1 X110.843 Y76.563 F7800.000
G1 E2.00000 F2400.00000
G1 X118.293 Y65.921 E3.54284 F1800.000
G1 X119.922 Y64.285 E3.81707
G1 X121.622 Y63.418 E4.04368
G1 X122.047 Y63.272 E4.09708
G1 X124.219 Y62.911 E4.35849
G1 X159.127 Y62.911 E8.50443
G1 X161.402 Y63.309 E8.77865
G1 X162.830 Y64.025 E8.96847 F1800.000
G1 X163.095 Y64.200 E9.00618
G1 X164.893 Y65.950 E9.30412
G1 X172.290 Y76.518 E10.83615
G1 X173.325 Y78.829 E11.13685
G1 X173.438 Y79.308 E11.19524
G1 X173.616 Y80.847 E11.37932
G1 X173.616 Y134.316 E17.72952
G1 X172.905 Y137.324 E18.09668
G1 X172.739 Y137.655 E18.14068
G1 X172.237 Y138.497 E18.25709
G1 X164.787 Y149.140 E19.79993
G1 X163.157 Y150.775 E20.07416
G1 X161.454 Y151.644 E20.30121
G1 X161.029 Y151.789 E20.35459
G1 X158.861 Y152.149 E20.61555
G1 X123.953 Y152.149 E24.76149
G1 X121.678 Y151.751 E25.03571
G1 X120.248 Y151.034 E25.22568
G1 X119.984 Y150.859 E25.26339
G1 X118.187 Y149.110 E25.56118
G1 X110.790 Y138.542 E27.09321
G1 X109.755 Y136.230 E27.39400
G1 X109.642 Y135.752 E27.45240
G1 X109.464 Y134.213 E27.63639
G1 X109.464 Y80.744 E33.98659
G1 X110.175 Y77.736 E34.35375
G1 X110.341 Y77.405 E34.39769
G1 X110.812 Y76.615 E34.50697
G1 E32.50697 F2400.00000
G92 E0
G1 X116.343 Y80.413 F7800.000
G1 E2.00000 F2400.00000
G1 X116.178 Y80.744 E2.01933 F1800.000
G1 X116.178 Y81.448 F7800.000
G1 X117.585 Y78.640 E2.18343 F1800.000
G1 E0.18343 F2400.00000
G92 E0
G1 X118.827 Y76.866 F7800.000
G1 E2.00000 F2400.00000
G1 X116.178 Y82.151 E2.30887 F1800.000
G1 X116.178 Y82.855 F7800.000
G1 X120.068 Y75.092 E2.76251 F1800.000
G1 E0.76251 F2400.00000
G92 E0
G1 X121.310 Y73.319 F7800.000
G1 E2.00000 F2400.00000
G1 X116.178 Y83.558 E2.59841 F1800.000
G1 X116.178 Y84.262 F7800.000
G1 X122.552 Y71.545 E3.34159 F1800.000
G1 E1.34159 F2400.00000
G92 E0
G1 X123.793 Y69.771 F7800.000
G1 E2.00000 F2400.00000
G1 X116.178 Y84.965 E2.88795 F1800.000
G1 X116.178 Y85.669 F7800.000
G1 X124.219 Y69.626 E3.82552 F1800.000
G1 X124.571 Y69.626 E3.84394
G1 X116.178 Y86.372 E4.82262
G1 X116.178 Y87.076 F7800.000
G1 X124.924 Y69.626 E5.84241 F1800.000
G1 X125.276 Y69.626 E5.86084
G1 X116.178 Y87.780 E6.92175
G1 X116.178 Y88.483 F7800.000
G1 X125.629 Y69.626 E8.02377 F1800.000
G1 X125.982 Y69.626 E8.04219
G1 X116.178 Y89.187 E9.18533
G1 X116.178 Y89.890 F7800.000
G1 X126.334 Y69.626 E10.36958 F1800.000
G1 X126.687 Y69.626 E10.38800
G1 X116.178 Y90.594 E11.61337
G1 X116.178 Y91.297 F7800.000
G1 X127.040 Y69.626 E12.87985 F1800.000
G1 X127.392 Y69.626 E12.89827
G1 X116.178 Y92.001 E14.20586
G1 X116.178 Y92.704 F7800.000
G1 X127.745 Y69.626 E15.55457 F1800.000
G1 X128.097 Y69.626 E15.57299
G1 X116.178 Y93.408 E16.96281
G1 X116.178 Y94.111 F7800.000
G1 X128.402 Y69.721 E18.38820 F1800.000
G1 X128.402 Y70.424 F7800.000
G1 X116.178 Y94.815 E19.81358 F1800.000
G1 X116.178 Y95.518 F7800.000
G1 X128.402 Y71.128 E21.23896 F1800.000
G1 X128.402 Y71.831 F7800.000
G1 X116.178 Y96.222 E22.66434 F1800.000
G1 X116.178 Y96.925 F7800.000
G1 X128.402 Y72.535 E24.08973 F1800.000
G1 X128.402 Y73.238 F7800.000
G1 X116.178 Y97.629 E25.51511 F1800.000
G1 X116.178 Y98.333 F7800.000
G1 X128.402 Y73.942 E26.94049 F1800.000
G1 X128.402 Y74.645 F7800.000
G1 X116.178 Y99.036 E28.36587 F1800.000
G1 X116.178 Y99.740 F7800.000
G1 X128.402 Y75.349 E29.79125 F1800.000
G1 X128.402 Y76.052 F7800.000
G1 X116.178 Y100.443 E31.21664 F1800.000
G1 X116.178 Y101.147 F7800.000
G1 X128.402 Y76.756 E32.64202 F1800.000
G1 X128.402 Y77.460 F7800.000
G1 X116.178 Y101.850 E34.06740 F1800.000
G1 X116.178 Y102.554 F7800.000
G1 X128.402 Y78.163 E35.49278 F1800.000
G1 X128.523 Y78.626 F7800.000
G1 X116.178 Y103.257 E36.93225 F1800.000
G1 X116.178 Y103.961 F7800.000
G1 X128.876 Y78.626 E38.41283 F1800.000
G1 X129.228 Y78.626 E38.43125
G1 X116.178 Y104.664 E39.95294
G1 X116.178 Y105.368 F7800.000
G1 X129.581 Y78.626 E41.51575 F1800.000
G1 X129.934 Y78.626 E41.53417
G1 X116.178 Y106.071 E43.13810
G1 X116.178 Y106.775 F7800.000
G1 X130.286 Y78.626 E44.78313 F1800.000
G1 X130.639 Y78.626 E44.80155
G1 X116.178 Y107.478 E46.48771
G1 X116.178 Y108.182 F7800.000
G1 X130.991 Y78.626 E48.21497 F1800.000
G1 X131.344 Y78.626 E48.23339
G1 X116.178 Y108.886 E50.00177
G1 X116.178 Y109.589 F7800.000
G1 X131.697 Y78.626 E51.81127 F1800.000
G1 X132.049 Y78.626 E51.82969
G1 X116.178 Y110.293 E53.68030
G1 X116.178 Y110.996 F7800.000
G1 X132.402 Y78.626 E55.57202 F1800.000
G1 X132.754 Y78.626 E55.59044
G1 X116.178 Y111.700 E57.52328
G1 X116.178 Y112.403 F7800.000
G1 X133.107 Y78.626 E59.49723 F1800.000
G1 X133.460 Y78.626 E59.51565
G1 X116.178 Y113.107 E61.53071
G1 X116.188 Y113.790 E61.56641
G1 X133.812 Y78.626 E63.62139
G1 X134.165 Y78.626 E63.63981
G1 X116.403 Y114.065 E65.71088
G1 X116.617 Y114.340 E65.72912
G1 X134.518 Y78.626 E67.81627
G1 X134.870 Y78.626 E67.83469
G1 X116.832 Y114.615 E69.93793
G1 X117.042 Y114.900 E69.95641
G1 X135.223 Y78.626 E72.07628
G1 X135.575 Y78.626 E72.09470
G1 X117.234 Y115.220 E74.23325
G1 X117.425 Y115.542 E74.25284
G1 X135.928 Y78.626 E76.41025
G1 X136.281 Y78.626 E76.42867
G1 X117.592 Y115.914 E78.60778
G1 X117.756 Y116.290 E78.62924
G1 X136.633 Y78.626 E80.83036
G1 X136.986 Y78.626 E80.84878
G1 X117.890 Y116.725 E83.07529
G1 X118.012 Y117.185 E83.10016
G1 X137.338 Y78.626 E85.35356
G1 X137.691 Y78.626 E85.37198
G1 X118.107 Y117.701 E87.65551
G1 X118.157 Y118.304 E87.68716
G1 X138.044 Y78.626 E90.00597
G1 X138.396 Y78.626 E90.02439
G1 X118.151 Y119.019 E92.38499
G1 X118.025 Y119.974 F7800.000
G1 X138.749 Y78.626 E94.80136 F1800.000
G1 X139.101 Y78.626 E94.81978
G1 X116.178 Y124.363 E97.49267
G1 X116.178 Y123.660 F7800.000
G1 X116.554 Y122.909 E97.53652 F1800.000
G1 E95.53652 F2400.00000
G92 E0
G1 X116.178 Y125.067 F7800.000
G1 E2.00000 F2400.00000
G1 X139.454 Y78.626 E4.71401 F1800.000
G1 X139.807 Y78.626 E4.73243
G1 X116.178 Y125.770 E7.48755
G1 X116.178 Y126.474 F7800.000
G1 X140.159 Y78.626 E10.28379 F1800.000
G1 X140.512 Y78.626 E10.30221
G1 X116.178 Y127.177 E13.13956
G1 X116.178 Y127.881 F7800.000
G1 X140.865 Y78.626 E16.01803 F1800.000
G1 X141.217 Y78.626 E16.03645
G1 X116.178 Y128.584 E18.95603
G1 X116.178 Y129.288 F7800.000
G1 X141.570 Y78.626 E21.91672 F1800.000
G1 X141.922 Y78.626 E21.93514
G1 X116.178 Y129.992 E24.93695
G1 X116.178 Y130.695 F7800.000
G1 X142.275 Y78.626 E27.97987 F1800.000
G1 X142.628 Y78.626 E27.99829
G1 X116.178 Y131.399 E31.08233
G1 X116.178 Y132.102 F7800.000
G1 X142.980 Y78.626 E34.20748 F1800.000
G1 X143.333 Y78.626 E34.22590
G1 X116.178 Y132.806 E37.39217
G1 X116.178 Y133.509 F7800.000
G1 X143.685 Y78.626 E40.59955 F1800.000
G1 X144.038 Y78.626 E40.61797
G1 X116.178 Y134.213 E43.86646
G1 X116.290 Y134.691 E43.89215
G1 X144.391 Y78.626 E47.16862
G1 X144.743 Y78.626 E47.18704
G1 X116.496 Y134.985 E50.48066
G1 X116.701 Y135.278 E50.49938
G1 X145.096 Y78.626 E53.81016
G1 X145.449 Y78.626 E53.82858
G1 X116.907 Y135.572 E57.15651
G1 X117.112 Y135.866 E57.17523
G1 X145.801 Y78.626 E60.52032
G1 X146.154 Y78.626 E60.53874
G1 X117.318 Y136.159 E63.90098
G1 X117.523 Y136.453 E63.91970
G1 X146.506 Y78.626 E67.29910
G1 X146.859 Y78.626 E67.31752
G1 X117.729 Y136.746 E70.71407
G1 X117.934 Y137.040 E70.73279
G1 X147.212 Y78.626 E74.14650
G1 X147.564 Y78.626 E74.16492
G1 X118.140 Y137.333 E77.59578
G1 X118.345 Y137.627 E77.61450
G1 X147.917 Y78.626 E81.06252
G1 X148.269 Y78.626 E81.08094
G1 X118.551 Y137.920 E84.54611
G1 X118.756 Y138.214 E84.56483
G1 X148.622 Y78.626 E88.04716
G1 X148.975 Y78.626 E88.06558
G1 X118.962 Y138.508 E91.56506
G1 X119.167 Y138.801 E91.58378
G1 X149.327 Y78.626 E95.10042
G1 X149.680 Y78.626 E95.11884
G1 X119.373 Y139.095 E98.65263
G1 X119.578 Y139.388 E98.67135
G1 X150.032 Y78.626 E102.22230
G1 X150.385 Y78.626 E102.24072
G1 X119.784 Y139.682 E105.80882
G1 X119.989 Y139.975 E105.82754
G1 X150.738 Y78.626 E109.41279
G1 X151.090 Y78.626 E109.43122
G1 X120.195 Y140.269 E113.03363
G1 X120.400 Y140.562 E113.05235
G1 X151.443 Y78.626 E116.67191
G1 X151.796 Y78.626 E116.69034
G1 X120.606 Y140.856 E120.32706
G1 X120.811 Y141.149 E120.34578
G1 X152.148 Y78.626 E123.99965
G1 X152.501 Y78.626 E124.01807
G1 X121.017 Y141.443 E127.68910
G1 X121.222 Y141.737 E127.70782
G1 X152.853 Y78.626 E131.39601
G1 X153.206 Y78.626 E131.41443
G1 X121.427 Y142.030 E135.11977
G1 X121.633 Y142.324 E135.13849
G1 X153.559 Y78.626 E138.86099
G1 X153.911 Y78.626 E138.87941
G1 X121.838 Y142.617 E142.61906
G1 X122.044 Y142.911 E142.63778
G1 X154.264 Y78.626 E146.39459
G1 X154.678 Y77.800 F7800.000
G1 X158.775 Y69.626 E146.87229 F1800.000
G1 X159.127 Y69.626 E146.89072
G1 X122.249 Y143.204 E151.19063
G1 X122.455 Y143.498 E151.20935
G1 X159.392 Y69.801 E155.51619
G1 X159.598 Y70.094 E155.53491
G1 X122.660 Y143.791 E159.84175
G1 X122.866 Y144.085 E159.86047
G1 X159.803 Y70.388 E164.16731
G1 X160.009 Y70.681 E164.18603
G1 X123.071 Y144.379 E168.49287
G1 X123.277 Y144.672 E168.51159
G1 X160.214 Y70.975 E172.81843
G1 X160.420 Y71.269 E172.83715
G1 X123.482 Y144.966 E177.14399
G1 E175.14399 F2400.00000
G92 E0
G1 X128.402 Y144.999 F7800.000
G1 E2.00000 F2400.00000
G1 X128.184 Y145.434 E2.02546 F1800.000
G1 X127.831 Y145.434 E2.04388
G1 X128.402 Y144.295 E2.11045
G1 X128.402 Y143.592 F7800.000
G1 X127.479 Y145.434 E2.21814 F1800.000
G1 X127.126 Y145.434 E2.23656
G1 X128.402 Y142.888 E2.38536
G1 X128.402 Y142.185 F7800.000
G1 X126.774 Y145.434 E2.57527 F1800.000
G1 X126.421 Y145.434 E2.59369
G1 X128.402 Y141.481 E2.82472
G1 X128.402 Y140.778 F7800.000
G1 X126.068 Y145.434 E3.09687 F1800.000
G1 X125.716 Y145.434 E3.11529
G1 X128.402 Y140.074 E3.42854
G1 X128.402 Y139.370 F7800.000
G1 X125.363 Y145.434 E3.78292 F1800.000
G1 X125.010 Y145.434 E3.80134
G1 X128.402 Y138.667 E4.19682
G1 X128.402 Y137.963 F7800.000
G1 X124.658 Y145.434 E4.63342 F1800.000
G1 X124.305 Y145.434 E4.65185
G1 X128.402 Y137.260 E5.12956
G1 X128.402 Y136.556 F7800.000
G1 X123.953 Y145.434 E5.64839 F1800.000
G1 X123.688 Y145.259 E5.66498
G1 X160.625 Y71.562 E9.97182
G1 X160.831 Y71.856 E9.99054
G1 X128.463 Y136.434 E13.76450
G1 X128.816 Y136.434 E13.78292
G1 X161.036 Y72.149 E17.53973
G1 X161.241 Y72.443 E17.55845
G1 X129.169 Y136.434 E21.29810
G1 X129.521 Y136.434 E21.31653
G1 X161.447 Y72.736 E25.03902
G1 X161.652 Y73.030 E25.05775
G1 X129.874 Y136.434 E28.76309
G1 X130.227 Y136.434 E28.78151
G1 X161.858 Y73.323 E32.46970
G1 X162.063 Y73.617 E32.48842
G1 X130.579 Y136.434 E36.15945
G1 X130.932 Y136.434 E36.17788
G1 X162.269 Y73.910 E39.83175
G1 X162.474 Y74.204 E39.85048
G1 X131.284 Y136.434 E43.48720
G1 X131.637 Y136.434 E43.50562
G1 X162.680 Y74.498 E47.12519
G1 X162.885 Y74.791 E47.14391
G1 X131.990 Y136.434 E50.74632
G1 X132.342 Y136.434 E50.76475
G1 X163.091 Y75.085 E54.35000
G1 X163.296 Y75.378 E54.36873
G1 X132.695 Y136.434 E57.93683
G1 X133.047 Y136.434 E57.95525
G1 X163.502 Y75.672 E61.50620
G1 X163.707 Y75.965 E61.52492
G1 X133.400 Y136.434 E65.05871
G1 X133.753 Y136.434 E65.07714
G1 X163.913 Y76.259 E68.59378
G1 X164.118 Y76.552 E68.61250
G1 X134.105 Y136.434 E72.11198
G1 X134.458 Y136.434 E72.13040
G1 X164.324 Y76.846 E75.61273
G1 X164.529 Y77.140 E75.63145
G1 X134.811 Y136.434 E79.09663
G1 X135.163 Y136.434 E79.11505
G1 X164.735 Y77.433 E82.56307
G1 X164.940 Y77.727 E82.58179
G1 X135.516 Y136.434 E86.01265
G1 X135.868 Y136.434 E86.03107
G1 X165.146 Y78.020 E89.44478
G1 X165.351 Y78.314 E89.46350
G1 X136.221 Y136.434 E92.86006
G1 X136.574 Y136.434 E92.87848
G1 X165.557 Y78.607 E96.25788
G1 X165.762 Y78.901 E96.27660
G1 X136.926 Y136.434 E99.63884
G1 X137.279 Y136.434 E99.65727
G1 X165.968 Y79.194 E103.00236
G1 X166.173 Y79.488 E103.02108
G1 X137.631 Y136.434 E106.34901
G1 X137.984 Y136.434 E106.36743
G1 X166.379 Y79.781 E109.67821
G1 X166.584 Y80.075 E109.69693
G1 X138.337 Y136.434 E112.99056
G1 X138.689 Y136.434 E113.00898
G1 X166.790 Y80.369 E116.28545
G1 X166.902 Y80.847 E116.31114
G1 X139.042 Y136.434 E119.55964
G1 X139.394 Y136.434 E119.57806
G1 X166.902 Y81.551 E122.78545
G1 X166.902 Y82.254 F7800.000
G1 X139.747 Y136.434 E125.95172 F1800.000
G1 X140.100 Y136.434 E125.97014
G1 X166.902 Y82.958 E129.09530
G1 X166.902 Y83.661 F7800.000
G1 X140.452 Y136.434 E132.17935 F1800.000
G1 X140.805 Y136.434 E132.19777
G1 X166.902 Y84.365 E135.24070
G1 X166.902 Y85.068 F7800.000
G1 X141.158 Y136.434 E138.24251 F1800.000
G1 X141.510 Y136.434 E138.26094
G1 X166.902 Y85.772 E141.22164
G1 X166.902 Y86.475 F7800.000
G1 X141.863 Y136.434 E144.14122 F1800.000
G1 X142.215 Y136.434 E144.15965
G1 X166.902 Y87.179 E147.03812
G1 X166.902 Y87.882 F7800.000
G1 X142.568 Y136.434 E149.87548 F1800.000
G1 X142.921 Y136.434 E149.89390
G1 X166.902 Y88.586 E152.69014
G1 X166.902 Y89.290 F7800.000
G1 X143.273 Y136.434 E155.44527 F1800.000
G1 X143.626 Y136.434 E155.46370
G1 X166.902 Y89.993 E158.17771
G1 X166.902 Y90.697 F7800.000
G1 X143.978 Y136.434 E160.85061 F1800.000
G1 X144.331 Y136.434 E160.86904
G1 X166.902 Y91.400 E163.50082
G1 X166.902 Y92.104 F7800.000
G1 X144.684 Y136.434 E166.09150 F1800.000
G1 X145.036 Y136.434 E166.10992
G1 X166.902 Y92.807 E168.65948
G1 X166.902 Y93.511 F7800.000
G1 X145.389 Y136.434 E171.16792 F1800.000
G1 X145.742 Y136.434 E171.18634
G1 X166.902 Y94.214 E173.65367
G1 X166.902 Y94.918 F7800.000
G1 X146.094 Y136.434 E176.07989 F1800.000
G1 X146.447 Y136.434 E176.09831
G1 X166.902 Y95.621 E178.48341
G1 X166.902 Y96.325 F7800.000
G1 X146.799 Y136.434 E180.82740 F1800.000
G1 X147.152 Y136.434 E180.84582
G1 X166.902 Y97.028 E183.14869
G1 X166.902 Y97.732 F7800.000
G1 X147.505 Y136.434 E185.41045 F1800.000
G1 X147.857 Y136.434 E185.42888
G1 X166.902 Y98.435 E187.64952
G1 X166.902 Y99.139 F7800.000
G1 X148.210 Y136.434 E189.82905 F1800.000
G1 X148.562 Y136.434 E189.84747
G1 X166.902 Y99.843 E191.98589
G1 X166.902 Y100.546 F7800.000
G1 X148.915 Y136.434 E194.08319 F1800.000
G1 X149.268 Y136.434 E194.10161
G1 X166.902 Y101.250 E196.15780
G1 X166.902 Y101.953 F7800.000
G1 X149.620 Y136.434 E198.17287 F1800.000
G1 X149.973 Y136.434 E198.19129
G1 X166.902 Y102.657 E200.16525
G1 X166.902 Y103.360 F7800.000
G1 X150.325 Y136.434 E202.09810 F1800.000
G1 X150.678 Y136.434 E202.11652
G1 X166.902 Y104.064 E204.00825
G1 X166.902 Y104.767 F7800.000
G1 X151.031 Y136.434 E205.85887 F1800.000
G1 X151.383 Y136.434 E205.87729
G1 X166.902 Y105.471 E207.68679
G1 X166.902 Y106.174 F7800.000
G1 X151.736 Y136.434 E209.45518 F1800.000
G1 X152.089 Y136.434 E209.47360
G1 X166.902 Y106.878 E211.20087
G1 X166.902 Y107.581 F7800.000
G1 X152.441 Y136.434 E212.88703 F1800.000
G1 X152.794 Y136.434 E212.90545
G1 X166.902 Y108.285 E214.55050
G1 X166.902 Y108.988 F7800.000
G1 X153.146 Y136.434 E216.15443 F1800.000
G1 X153.499 Y136.434 E216.17285
G1 X166.902 Y109.692 E217.73567
G1 X166.902 Y110.396 F7800.000
G1 X153.852 Y136.434 E219.25737 F1800.000
G1 X154.204 Y136.434 E219.27579
G1 X166.902 Y111.099 E220.75638
G1 X166.902 Y111.803 F7800.000
G1 X154.557 Y136.434 E222.19585 F1800.000
G1 X154.678 Y136.897 F7800.000
G1 X166.902 Y112.506 E223.62123 F1800.000
G1 X166.902 Y113.210 F7800.000
G1 X154.678 Y137.600 E225.04661 F1800.000
G1 X154.678 Y138.304 F7800.000
